X:116
T:Riding on a Load of Hay
R:polka
H:Originates from the Scottish strathspey "Mrs. Ramsay of Barnton"
Z:id:hn-polka-116
M:2/4
L:1/8
K:Edor
E>F GA | Be ef/e/ | dB AG | FD DF |
E>F GA | Be e>f | g/f/e B^d |1 e2 e2 :|2 e2 e>f ||
|: ge fd | eB B>c | dB AG |1 FD D>f | ge fd | eB B>c | dB AF | E2 E>f :|
[2 FD D>F | EG FA | GB e>f | ge B^d | e2 e2 ||

